X:52
T:The Rights of Man
S:Bernie Waugh
R:Reel
M:4/4
L:1/8
K:D minor
|:FG|\
"F"(3ABc GA "Am"FGEF|"Dm"DEFG A2de|"Bb"fedc dcBA|"Gm"BAGF "C"E2FG|
"F"(3ABc GA "Am"FGEF|"Dm"DEFG A2de|"Bb"fedc "Am"Afef|"Dm"d2D2 D2:|
|:fg|\
"Dm"agfe defg|agaf defg|"C"(3efe de cdef|gece "Gm"g2fe|
"Gm"(3dcd de "Am"fAgA|"Bb"aGfG "C"~fede|\
"Dm"fedc "Am"Afef|"Dm"d2D2 D2:|

